X: 761
T: Shiquan renxen
%%abc-version 2.0
%%abcx-abcm2ps-target-version 5.9.1 (29 Sep 2008)
%%abc-creator hum2abc beta
%%abcx-conversion-date 2013/10/02 07:52:30
%%abc-edited-by Helmut Schaffrath
%%humdrum-veritas 3879032344
%%humdrum-veritas-data 1995214971
%%continueall 1
%%barnumbers 0
L: 1/8
M: 4/4
K: G
A A A d/ e/ c BA2 [I:setbarnb 1]| 
d B/ A/ A ED4 | 
A B A A G F E D | 
A G E/ D/ ED4 | 
A GA2A d c B | 
A A/ B/ A DG4 | 
d F A B A G E D | 
A G E/ D/ ED4 | 
A A/ B/ A dG4 | 
d F A B A G E D | 
A G E/ D/ ED4 |]  



